X:1
T:Title
%%score { ( 1 3 ) | 2 }
L:1/8
M:3/4
K:G
V:1 treble nm="Grand Piano"
V:3 treble 
V:2 bass 
V:1
 z2 z2[Q:1/4=92] Bc | BA d2 AB | AG D2 GF | ^DE cB AE | F2 d2 Bc | BA d2 AB | AG D2 GF | %7
 ^DE cB BA |[M:2/4] G4 |[M:4/4] B2 d-[Fd-] [Gd-][Gd-][Fd][Fc] | z2 G6 | %11
 [DG][DFA] [DGB]2- [DGB][DFc][DGd][DG] | z2 A6 | z2 BB BB [Gd]2 | %14
[M:9/8] [DG]2 [Gc] [Gc][Gd][Gd] [Ge]2 [EGA]- |[M:4/4] [EGA]2 [Ee][EA] .B.cdG | .A.B[Fc]A Bcd.B | %17
 .c.d[Ee][EA] .B.cdG |[M:7/8] A[GB] [Fc]2 [CDF]2 [B,DG]- | [B,DG]2 z z z z2 |] %20
V:2
 z6 | D,,2 [D,F,C]2 [D,F,C]2 | G,,2 [D,G,B,]2 [D,G,B,]2 | C,2 [E,A,C]2 [A,,E,A,]2 | [D,F,A,D]4 z2 | %5
 D,,2 [D,F,C]2 [D,F,C]2 | G,,2 [D,G,B,]2 [D,G,B,]2 | C,2 [E,A,C]2 [D,CD]2 |[M:2/4] [G,B,D]4 | %9
[M:4/4] [G,D]2 [D,A,][D,A,] [D,B,][D,B,][D,A,][D,A,] | [D,C][D,CD] [G,B,D]2 [G,C][G,C] [G,B,]2 | %11
 B,,D, G,2- G,A,B,B, | F,G, D,2 A,,A,, [D,D]2 | %13
 z2[K:treble] [G,DG][G,DG] [G,DG][G,DG][K:bass] [=F,B,]2 | %14
[M:9/8] [=F,B,]2 [E,C] [E,C][D,B,][D,B,] [C,C]2 C,- |[M:4/4] C,2 [C,C][C,C] z2 [D,B,D][D,B,D] | %16
 z2 [D,A,][K:treble][CDF] [B,DG][A,CF] .[G,B,G]2 | z2[K:bass] [C,C][C,C] z2 [D,B,D][D,B,D] | %18
[M:7/8] [D,B,D][D,B,] [D,A,]2 D,2 G,,- | G,,2 z z z z2 |] %20
V:3
 x6 | x6 | x6 | z2 z2 ^C2 | x6 | x6 | x6 | z2 z2 F2 |[M:2/4] x4 |[M:4/4] z2 .F2 z4 | EF z2 EE D2 | %11
 x8 | [DAc][DGB] [DF]2 [^CE][CE] F2 | x8 |[M:9/8] x9 |[M:4/4] x8 | x8 | x8 |[M:7/8] x7 | x7 |] %20

